X:1
T:Old Folks At Home
T:Old Folks At Home
T:Theme and Variations
T:Stephen Foster 1826 - 1864   
C:Stephen Foster
%%score { ( 1 4 ) | ( 2 3 ) }
L:1/8
Q:1/4=120
M:4/4
K:G
V:1 treble nm="Piano" snm="Pno."
V:4 treble 
V:2 bass 
V:3 bass 
V:1
!mf!"^Moderato" B4 AGBA | G2 g2 e2 g2 | d4 B3 G | A6 z2 | B4 AGBA | G2 g2 e2 g2 | d2 BG A2 A2 | %7
 G6 z2 |!mf! B4 AGBA | G2 g2 e2 g2 | d4 B3 G | A6 z2 | B4 AGBA | G2 g2 e2 g2 | d2 BG A2 A2 | %15
 G6 z2 |!f! [Af]3 [Bg] [ca]2 [cd]2 | d3 e d2 [Bg]2 | g2 e2 c2 e2 | [Bd]6 z2 |!mf! B4 AGBA | %21
 G2 g2 e2 g2 | d2 BG A2 A2 | G6 z2 |:[M:2/4][K:treble+8]"^Var. 1 (Poka)" .B.e/.d/ .A.e/.d/ | %25
 .G.g/.f/ .g.e | .d.B .B/.A/.G | .A.d/.^c/ .d.A | .B.e/.d/ .A.e/.d/ | .G.g/.f/ .g.e | %30
 .e/.d/.B .d/.c/.A | .G.[DB] .[B,G].g | .f/.a/.d .f/.a/.d | .g/.b/.d .g/.b/.d | %34
 .g/.c'/.e .g/.c'/.e | .[db].g .[ca].f | .[Bg].d/.^c/ .d.B | .[cg].e/.^d/ .e.c | %38
 .g/.=f/.d .d/.c/.A | .G.[DB] .[B,G]2 ::[K:C][M:6/8][K:treble]"^Var 2. (Quadrille)" e3 dcd | %41
 c2 c' a2 c' | gfe edc | d6 | e3 dcd | c2 c' a2 c' | gfe dcd | c3- c2 c' | bc'd' gab | %49
 c'e'd' c'ba | ^gab d'c'a | gc'b agf | e3 dcd | c2 c' a2 c' | gfe dcd | c6 |!8va(!{/b} a3 a^ga | %57
 e'3 c'3 | f'3 d'2 ^d' | e'3- e'2 z | d'3 b2 d' | c'3 a3!8va)! | g3 e2 c | d6 | e3 dcd | %65
 c2 c' a2 c' | gfe dcd | c6 ::[K:G][M:4/4][K:treble+8]"^Var 3. (Hornpipe)"!mf! B>d c>B c>e d>c | %69
 G>g f>g a>g f>e | d>g f>e d>c B>c | A>d ^c>d e>d =c>A | B>d c>B c>e d>c | G>g f>g a>g f>e | %74
 d>g f>e d>c B>c | G>G B>d g2 z g | f>g a>g f>d e>f | g>a b>a g>f e>^d | e>f g>f a>g f>e | %79
 d>g f>e d>c B>A | B>d c>B c>e d>c | G>g f>g a>g f>e | d>g f>e d>c B>c | G>G B>d g2 z2 :| %84
[K:treble]"^rit." B4[Q:1/4=116] AG[Q:1/4=114]BA[Q:1/4=118] | %85
[Q:1/4=112] G2[Q:1/4=110] z2[Q:1/4=108] [Gg]2[Q:1/4=106] [Ee]2 | %86
[Q:1/4=104] [Dd]2[Q:1/4=102] z2[Q:1/4=100] [Aa]2 z2 | [Bg]6 z2 |] %88
V:2
!p!!ped! G,8!ped-up!!ped!!ped-up!!ped!!ped-up! |!ped! G,8!ped-up!!ped!!ped-up!!ped!!ped-up! | %2
!ped! G,8!ped-up!!ped!!ped-up!!ped!!ped-up! |!ped! F,8!ped-up!!ped!!ped-up!!ped!!ped-up! | %4
!ped! G,8!ped-up!!ped!!ped-up!!ped!!ped-up! |!ped! C,8!ped-up!!ped!!ped-up!!ped!!ped-up! | %6
!ped! D,4!ped-up!!ped! D,4!ped-up! |!ped! G,6!ped-up! z2 | %8
!ped! G,DB,D!ped-up!!ped! G,D!ped-up!!ped!B,D!ped-up! |!ped! G,ECE G,ECE!ped-up! | %10
!ped! G,DB,D!ped-up!!ped! G,D!ped-up!!ped!B,D!ped-up! |!ped! D,DCD F,DCD!ped-up! | %12
!ped! G,DB,D!ped-up!!ped! G,D!ped-up!!ped!B,D!ped-up! |!ped! G,ECE G,ECE!ped-up! | %14
!ped! D,B,G,B,!ped-up!!ped! D,C!ped-up!!ped!A,C!ped-up! |!ped! G,DB,D G,2!ped-up! z2 | %16
!ped! [D,,D,]2 [A,CDF]2 [A,CDF]2 [A,CDF]2!ped-up! |!ped! [G,,G,]2 [B,DG]2 [B,DG]2 [B,DG]2!ped-up! | %18
!ped! [C,C]2 [G,CE]2 [G,CE]2 [G,CE]2!ped-up! |!ped! [G,,G,]2 [G,B,D]2 [G,B,D]2!ped-up! z2 | %20
!p!!ped! G,DB,D!ped-up!!ped! G,D!ped-up!!ped!B,D!ped-up! |!ped! G,ECE G,ECE!ped-up! | %22
!ped! D,B,G,B,!ped-up!!ped! D,C!ped-up!!ped!A,C!ped-up! |!ped! G,DB,D G,2!ped-up! z2 |: %24
[M:2/4] .G,.[B,D] .F,.[CD] | .G,.[B,D] .G,.[CE] | .G,.[B,D] .G,.[B,D] | .D,.[F,C] .[F,C].[F,C] | %28
 .G,.[B,D] .F,.[CD] | .G,.[B,D] .C,.[G,C] | .D,.[F,B,] .D,.[F,C] | .G,.[B,D] .G, z | %32
 .D,.[F,C] .D,.[F,C] | .G,.[B,D] .G,.[B,D] | .C,.[G,C] .C,.[G,C] | .D,.[G,B,] .D,.[A,C] | %36
 .G,.[B,D] .[G,B,].[G,B,] | .C,.[G,C] .[G,C].[G,C] | .D,.[G,B,] .D,.[F,C] | .G,.[B,D] G,2 :: %40
[K:C][M:6/8][K:treble]!ped! CEG!ped-up!!ped! B,FG!ped-up! |!ped! CEG!ped-up!!ped! CFA!ped-up! | %42
!ped! CEG!ped-up!!ped! CEG!ped-up! |!ped! B,FG A,FG!ped-up! |!ped! CEG!ped-up!!ped! B,FG!ped-up! | %45
!ped! CEG!ped-up![K:bass]!ped! F,CF!ped-up! |!ped! G,CE!ped-up!!ped! G,B,F!ped-up! | %47
!ped! CEG C2!ped-up! z |[K:treble]!ped! G,FG!ped-up!!ped! B,FG!ped-up! | %49
!ped! CEG!ped-up!!ped! CEG!ped-up! |[K:bass]!ped! F,CF!ped-up!!ped! F,CF!ped-up! | %51
!ped! G,CE G,C!ped-up!E |[K:treble]!ped! CEG!ped-up!!ped! B,FG!ped-up! | %53
!ped! CEG!ped-up![K:bass]!ped! F,CF!ped-up! |!ped! G,CE!ped-up!!ped! G,B,F!ped-up! | %55
!ped! CEG C2!ped-up! z |!ped! A,CE!ped-up!!ped! A,CE!ped-up! | %57
!ped! A,CE!ped-up!!ped! A,CE!ped-up! |!ped! A,DF!ped-up!!ped! A,DF!ped-up! | %59
!ped! A,CE A,CE!ped-up! |!ped! ^G,DE!ped-up!!ped! G,DE!ped-up! | %61
!ped! A,CE!ped-up!!ped! F,A,D!ped-up! |!ped! G,CE!ped-up!!ped! G,CE!ped-up! | %63
!ped! G,B,D G,3!ped-up! |!ped! CEG!ped-up!!ped! B,FG!ped-up! | %65
!ped! CEG!ped-up![K:bass]!ped! F,CF!ped-up! |!ped! G,CE!ped-up!!ped! G,B,F!ped-up! | %67
!ped! CEG C3!ped-up! ::[K:G][M:4/4]!p! .G,2 .[B,D]2 .F,2 .[A,CD]2 | .G,2 .[B,D]2 .G,2 .[CE]2 | %70
 .G,2 .[B,D]2 .G,2 .[B,D]2 | .F,2 .[A,CD]2 .D,2 [A,CD]2 |!p! .G,2 .[B,D]2 .F,2 .[A,CD]2 | %73
 .G,2 .[B,D]2 .C,2 .[G,C]2 | .D,2 .[G,B,]2 .D,2 .[F,C]2 | .G,2 .[B,D]2 .G,2 z2 | D,6 z2 | G,6 z2 | %78
 C,6 z2 | .G,2 .[B,D]2 .G,2 z2 |!p! .G,2 .[B,D]2 .F,2 .[A,CD]2 | .G,2 .[B,D]2 .C,2 .[G,C]2 | %82
 .D,2 .[G,B,]2 .D,2 .[F,C]2 | .G,2 .[B,D]2 .G,2 z2 :| G,2 [B,D]2 F,2 [B,^D]2 | %85
 E,2 [B,E]2 C,2 [G,C]2 | D,2 z2 [D,,D,]2 z2 | [G,,D,G,]6 z2 |] %88
V:3
 z2 [B,D]2 [B,D]2 [B,D]2 | z2 [CE]2 [CE]2 [CE]2 | z2 [B,D]2 [B,D]2 [B,D]2 | %3
 z2 [A,CD]2 [A,CD]2 [A,CD]2 | z2 [B,D]2 [B,D]2 [B,D]2 | z2 [G,CE]2 [G,CE]2 [G,CE]2 | %6
 z2 [B,D]2 z2 [F,C]2 | z2 [B,D]2 [B,D]2 x2 | x8 | x8 | x8 | x8 | x8 | x8 | x8 | x8 | x8 | x8 | x8 | %19
 x8 | x8 | x8 | x8 | x8 |:[M:2/4] x4 | x4 | x4 | x4 | x4 | x4 | x4 | x4 | x4 | x4 | x4 | x4 | x4 | %37
 x4 | x4 | x4 ::[K:C][M:6/8][K:treble] x6 | x6 | x6 | x6 | x6 | x3[K:bass] x3 | x6 | x6 | %48
[K:treble] x6 | x6 |[K:bass] x6 | x6 |[K:treble] x6 | x3[K:bass] x3 | x6 | x6 | x6 | x6 | x6 | x6 | %60
 x6 | x6 | x6 | x6 | x6 | x3[K:bass] x3 | x6 | x6 ::[K:G][M:4/4] x8 | x8 | x8 | x8 | x8 | x8 | x8 | %75
 x8 | z2 .[F,C]2 .[F,C]2 .[F,C]2 | z2 .[B,D]2 .[B,D]2 .[B,D]2 | z2 .[G,C]2 .[G,C]2 .[G,C]2 | x8 | %80
 x8 | x8 | x8 | x8 :| x8 | x8 | x8 | x8 |] %88
V:4
 x8 | x8 | x8 | x8 | x8 | x8 | x8 | x8 | x8 | x8 | x8 | x8 | x8 | x8 | x8 | x8 | x8 | B4 x4 | %18
 [ce]4 x4 | x8 | x8 | x8 | x8 | x8 |:[M:2/4][K:treble+8] x4 | x4 | x4 | x4 | x4 | x4 | x4 | x4 | %32
 x4 | x4 | x4 | x4 | x4 | x4 | x4 | x4 ::[K:C][M:6/8][K:treble] x6 | x6 | x6 | x6 | x6 | x6 | x6 | %47
 x6 | x6 | x6 | x6 | x6 | x6 | x6 | x6 | x6 |!8va(! x6 | x6 | x6 | x6 | x6 | x6!8va)! | x6 | x6 | %64
 x6 | x6 | x6 | x6 ::[K:G][M:4/4][K:treble+8] x8 | x8 | x8 | x8 | x8 | x8 | x8 | x8 | x8 | x8 | %78
 x8 | x8 | x8 | x8 | x8 | x8 :|[K:treble] x8 | x8 | x8 | x8 |] %88

